lib/brands/icons/google-sheets.svg

<svg xmlns="http://www.w3.org/2000/svg" fill="none" aria-hidden="true" viewBox="0 0 48 48"><g id="google-sheets-Icon"><g id="Group"><g id="Group_2"><path id="Path" fill="#0F9D58" d="M27.2719 6.00072H13.3668C12.0168 6.00072 10.9131 7.11166 10.9131 8.46091V39.5463C10.9131 40.8963 12.0168 42 13.3668 42H34.6316C35.9815 42 37.0853 40.8963 37.0853 39.5463V15.8213L31.3564 11.7304L27.2719 6.00072Z"/><path id="Shape" fill="#F1F1F1" d="M17.4585 23.5892V35.4553H30.5478V23.5892H17.4585ZM23.1809 33.8174H19.09V31.7719H23.1809V33.8174ZM23.1809 30.5414H19.09V28.4959H23.1809V30.5414ZM23.1809 27.2727H19.09V25.2272H23.1809V27.2727ZM28.9099 33.8174H24.8189V31.7719H28.9099V33.8174ZM28.9099 30.5414H24.8189V28.4959H28.9099V30.5414ZM28.9099 27.2727H24.8189V25.2272H28.9099V27.2727Z"/><path id="Path_1_" fill="url(#paint0_linear_94_17837)" d="M27.9888 15.1042L37.0851 24.2005V15.8213L27.9888 15.1042Z"/><path id="Path_2_" fill="#87CEAC" d="M27.2734 6.00372V13.3641C27.2734 14.7206 28.37 15.8178 29.7271 15.8178H37.0868L27.2734 6.00372Z"/><path id="Path_3_" fill="white" fill-opacity="0.2" d="M13.3668 6.00072C12.0168 6.00072 10.9131 7.11166 10.9131 8.46091V8.66467C10.9131 7.31469 12.0168 6.21096 13.3668 6.21096H27.2719V6H13.3668V6.00072Z"/><path id="Path_4_" fill="#263238" fill-opacity="0.2" d="M34.6323 41.789H13.3668C12.0168 41.789 10.9131 40.6853 10.9131 39.3353V39.5391C10.9131 40.8891 12.0168 41.9928 13.3668 41.9928H34.6316C35.9815 41.9928 37.0853 40.8891 37.0853 39.5391V39.3353C37.0853 40.6853 35.9815 41.789 34.6323 41.789Z"/><path id="Path_5_" fill="#263238" fill-opacity="0.1" d="M29.7257 15.8213C28.3692 15.8213 27.272 14.7248 27.272 13.3676V13.5714C27.272 14.9278 28.3685 16.0251 29.7257 16.0251H37.0854V15.8213H29.7257Z"/></g><path id="Path_2" fill="url(#paint1_radial_94_17837)" d="M27.2719 6.00072H13.3668C12.0168 6.00072 10.9131 7.11166 10.9131 8.46091V39.5463C10.9131 40.8963 12.0168 42 13.3668 42H34.6316C35.9815 42 37.0853 40.8963 37.0853 39.5463V15.8213L27.2719 6.00072Z"/></g></g><defs><linearGradient id="paint0_linear_94_17837" x1="32.537" x2="32.537" y1="15.8843" y2="24.2006" gradientUnits="userSpaceOnUse"><stop stop-color="#263238" stop-opacity="0.2"/><stop offset="1" stop-color="#263238" stop-opacity="0.02"/></linearGradient><radialGradient id="paint1_radial_94_17837" cx="0" cy="0" r="1" gradientTransform="translate(11.741 6.98) scale(42.2091)" gradientUnits="userSpaceOnUse"><stop stop-color="white" stop-opacity="0.1"/><stop offset="1" stop-color="white" stop-opacity="0"/></radialGradient></defs></svg>

<svg xmlns="http://www.w3.org/2000/svg" fill="none" aria-hidden="true" viewBox="0 0 48 48"><path fill="#0F9D58" d="M27.272 6H13.367a2.466 2.466 0 0 0-2.454 2.46v31.086A2.46 2.46 0 0 0 13.367 42H34.63a2.46 2.46 0 0 0 2.454-2.454V15.821l-5.729-4.09L27.272 6Z"/><path fill="#F1F1F1" d="M17.458 23.59v11.865h13.09V23.59h-13.09Zm5.723 10.227H19.09v-2.045h4.09v2.045Zm0-3.276H19.09v-2.045h4.09v2.045Zm0-3.268H19.09v-2.046h4.09v2.046Zm5.729 6.544h-4.091v-2.045h4.09v2.045Zm0-3.276h-4.091v-2.045h4.09v2.045Zm0-3.268h-4.091v-2.046h4.09v2.046Z"/><path fill="url(#a)" d="m27.989 15.104 9.096 9.097v-8.38l-9.096-.717Z"/><path fill="#87CEAC" d="M27.274 6.004v7.36a2.452 2.452 0 0 0 2.453 2.454h7.36l-9.813-9.814Z"/><path fill="#fff" fill-opacity=".2" d="M13.367 6a2.466 2.466 0 0 0-2.454 2.46v.205a2.46 2.46 0 0 1 2.454-2.454h13.905V6H13.367Z"/><path fill="#263238" fill-opacity=".2" d="M34.632 41.789H13.367a2.46 2.46 0 0 1-2.454-2.454v.204a2.46 2.46 0 0 0 2.454 2.454H34.63a2.46 2.46 0 0 0 2.454-2.454v-.204a2.46 2.46 0 0 1-2.453 2.454Z"/><path fill="#263238" fill-opacity=".1" d="M29.725 15.821a2.452 2.452 0 0 1-2.453-2.453v.203a2.452 2.452 0 0 0 2.453 2.454h7.36v-.204h-7.36Z"/><path fill="url(#b)" d="M27.272 6H13.367a2.466 2.466 0 0 0-2.454 2.46v31.086A2.46 2.46 0 0 0 13.367 42H34.63a2.46 2.46 0 0 0 2.454-2.454V15.821l-9.813-9.82Z"/><defs><radialGradient id="b" cx="0" cy="0" r="1" gradientTransform="translate(11.741 6.98) scale(42.2091)" gradientUnits="userSpaceOnUse"><stop stop-color="#fff" stop-opacity=".1"/><stop offset="1" stop-color="#fff" stop-opacity="0"/></radialGradient><linearGradient id="a" x1="32.537" x2="32.537" y1="15.884" y2="24.201" gradientUnits="userSpaceOnUse"><stop stop-color="#263238" stop-opacity=".2"/><stop offset="1" stop-color="#263238" stop-opacity=".02"/></linearGradient></defs></svg>
